src/img/feature-3.svg

<svg width="64" height="64" fill="none" xmlns="http://www.w3.org/2000/svg"><mask id="a" maskUnits="userSpaceOnUse" x="0" y="0" width="64" height="64"><path fill-rule="evenodd" clip-rule="evenodd" d="M0 0h64v64H0V0z" fill="#fff"/></mask><g mask="url(#a)" fill-rule="evenodd" clip-rule="evenodd"><path d="M0 64h64V0H0v64z" fill="#fff"/><path d="M58.666 5.334H53.1l-15.76 20.16-9.651-11.19L0 54.454v9.54h6.381l22.252-32.27 9.117 10.571 20.916-26.766V5.334z" fill="#52C18E"/><path d="M64 0H0v50.705L2.969 46.4h-.836V33.067h10.03l1.471-2.134h-11.5V17.601h13.334v10.672l2.133-3.094v-7.578h5.226l1.471-2.133h-6.697V2.134h13.333V14.8l2.417 2.8h7.456l1.667-2.133h-9.406V2.134h13.333v8.31l2.134-2.73v-5.58h13.333v13.333h-1.067v.801l-1.04 1.333h2.106v13.333H49.34l-2.939 3.761V46.4H33.067v-6.266l-2.134-2.473V46.4h-9.824l-1.471 2.133h11.295v13.334H17.601V51.486l-2.133 3.094v7.287h-5.02L8.977 64h55.03V0M15.474 15.467H2.14V2.134h13.334v13.333zm30.932 46.4H33.073V48.533h13.333v13.334zm15.467 0H48.54V48.533h13.333v13.334zm0-15.467H48.54V33.067h13.333V46.4z" fill="#D0D5D8"/></g></svg>

<svg width="64" height="64" viewBox="0 0 64 64" fill="none" xmlns="http://www.w3.org/2000/svg">
<mask id="mask0" mask-type="alpha" maskUnits="userSpaceOnUse" x="0" y="0" width="64" height="64">
<path fill-rule="evenodd" clip-rule="evenodd" d="M0 0H64V64H0V0Z" fill="white"/>
</mask>
<g mask="url(#mask0)">
<path fill-rule="evenodd" clip-rule="evenodd" d="M0 64H64V0H0V64Z" fill="white"/>
<path fill-rule="evenodd" clip-rule="evenodd" d="M58.666 5.33398H53.1L37.34 25.494L27.689 14.304L0 54.454V63.994H6.381L28.633 31.724L37.75 42.295L58.666 15.529V5.33398Z" fill="#52C18E"/>
<path fill-rule="evenodd" clip-rule="evenodd" d="M64 0H0V50.705L2.969 46.4H2.133V33.067H12.163L13.634 30.933H2.134V17.601H15.468V28.273L17.601 25.179V17.601H22.827L24.298 15.468H17.601V2.134H30.934V14.8L33.351 17.6H40.807L42.474 15.467H33.068V2.134H46.401V10.444L48.535 7.714V2.134H61.868V15.467H60.801V16.268L59.761 17.601H61.867V30.934H49.34L46.401 34.695V46.4H33.067V40.134L30.933 37.661V46.4H21.109L19.638 48.533H30.933V61.867H17.601V51.486L15.468 54.58V61.867H10.448L8.977 64H64.007V0M15.474 15.467H2.14V2.134H15.474V15.467ZM46.406 61.867H33.073V48.533H46.406V61.867ZM61.873 61.867H48.54V48.533H61.873V61.867ZM61.873 46.4H48.54V33.067H61.873V46.4Z" fill="#D0D5D8"/>
</g>
</svg>
